O0001
(This Post Processor is distributed on an "AS IS" BASIS, )
(WITHOUT WARRANTIES OR CONDITIONS OF ANY KIND, either express or implied. )
N1 G21
N2 (3MM CRB 2FL 12 LOC)
N3 G91 G28 X0 Y0 Z0
N4 T03 M06
N5 S12000 M03
N6 G90 G54 G00 X48.85 Y11.4
N7 G43 Z2.5 H03 M08
N8 G01 Z-1.5 F518.16
N9 G17 Y22. F2072.64
N10 G03 X47.15 I-.85 J0
N11 G01 Y11.4
N12 G03 X48.85 I.85 J0
N13 G01 X50.05
N14 Y22.
N15 G03 X45.95 I-2.05 J0
N16 G01 Y11.4
N17 G03 X50.05 I2.05 J0
N18 G01 X51.25
N19 Y22.
N20 G03 X44.75 I-3.25 J0
N21 G01 Y11.4
N22 G03 X51.25 I3.25 J0
N23 G01 Y22.
N24 G03 X44.75 I-3.25 J0
N25 G01 Y11.4
N26 G03 X51.25 I3.25 J0
N27 G00 Z2.5
N28 X48.85
N29 Z1.
N30 G01 Z-2.75 F518.16
N31 Y22. F2072.64
N32 G03 X47.15 I-.85 J0
N33 G01 Y11.4
N34 G03 X48.85 I.85 J0
N35 G01 X50.05
N36 Y22.
N37 G03 X45.95 I-2.05 J0
N38 G01 Y11.4
N39 G03 X50.05 I2.05 J0
N40 G01 X51.25
N41 Y22.
N42 G03 X44.75 I-3.25 J0
N43 G01 Y11.4
N44 G03 X51.25 I3.25 J0
N45 G01 Y22.
N46 G03 X44.75 I-3.25 J0
N47 G01 Y11.4
N48 G03 X51.25 I3.25 J0
N49 G00 Z2.5
N50 X48.85
N51 Z-.25
N52 G01 Z-3. F518.16
N53 Y22. F2072.64
N54 G03 X47.15 I-.85 J0
N55 G01 Y11.4
N56 G03 X48.85 I.85 J0
N57 G01 X50.05
N58 Y22.
N59 G03 X45.95 I-2.05 J0
N60 G01 Y11.4
N61 G03 X50.05 I2.05 J0
N62 G01 X51.25
N63 Y22.
N64 G03 X44.75 I-3.25 J0
N65 G01 Y11.4
N66 G03 X51.25 I3.25 J0
N67 G01 Y22.
N68 G03 X44.75 I-3.25 J0
N69 G01 Y11.4
N70 G03 X51.25 I3.25 J0
N71 G00 Z2.5
N72 Z25.
N73 X45.691 Y18.315
N74 Z3.
N75 G01 Z-1.5 F518.16
N76 G41 D23 X44.588 Y17.212 F1554.48
N77 G03 X44.5 Y17. I.212 J-.212
N78 G01 Y11.4 F2072.64
N79 G03 X51.5 I3.5 J0
N80 G01 Y22.
N81 G03 X44.5 I-3.5 J0
N82 G01 Y16.4
N83 G03 X44.588 Y16.188 I.3 J0
N84 G40 G01 X45.691 Y15.085
N85 G00 Z3.
N86 Y18.315
N87 Z1.5
N88 G01 Z-3. F518.16
N89 G41 D23 X44.588 Y17.212 F1554.48
N90 G03 X44.5 Y17. I.212 J-.212
N91 G01 Y11.4 F2072.64
N92 G03 X51.5 I3.5 J0
N93 G01 Y22.
N94 G03 X44.5 I-3.5 J0
N95 G01 Y16.4
N96 G03 X44.588 Y16.188 I.3 J0
N97 G40 G01 X45.691 Y15.085
N98 G00 Z3.
N99 Z25. M09
N100 G91 G28 Z0
N101 (2MM CRB 2FL 6.3 LOC)
N102 T02 M06
N103 S4000 M03
N104 G90 G54 G00 X48.55 Y11.4
N105 G43 Z2.5 H02 M08
N106 G01 Z-1. F125.
N107 Y22. F500.
N108 G03 X47.45 I-.55 J0
N109 G01 Y11.4
N110 G03 X48.55 I.55 J0
N111 G01 X49.35
N112 Y22.
N113 G03 X46.65 I-1.35 J0
N114 G01 Y11.4
N115 G03 X49.35 I1.35 J0
N116 G01 X50.15
N117 Y22.
N118 G03 X45.85 I-2.15 J0
N119 G01 Y11.4
N120 G03 X50.15 I2.15 J0
N121 G01 X50.95
N122 Y22.
N123 G03 X45.05 I-2.95 J0
N124 G01 Y11.4
N125 G03 X50.95 I2.95 J0
N126 G01 X51.75
N127 Y22.
N128 G03 X44.25 I-3.75 J0
N129 G01 Y11.4
N130 G03 X51.75 I3.75 J0
N131 G01 Y22.
N132 G03 X44.25 I-3.75 J0
N133 G01 Y11.4
N134 G03 X51.75 I3.75 J0
N135 G00 Z2.5
N136 X48.55
N137 Z1.5
N138 G01 Z-1.875 F125.
N139 Y22. F500.
N140 G03 X47.45 I-.55 J0
N141 G01 Y11.4
N142 G03 X48.55 I.55 J0
N143 G01 X49.35
N144 Y22.
N145 G03 X46.65 I-1.35 J0
N146 G01 Y11.4
N147 G03 X49.35 I1.35 J0
N148 G01 X50.15
N149 Y22.
N150 G03 X45.85 I-2.15 J0
N151 G01 Y11.4
N152 G03 X50.15 I2.15 J0
N153 G01 X50.95
N154 Y22.
N155 G03 X45.05 I-2.95 J0
N156 G01 Y11.4
N157 G03 X50.95 I2.95 J0
N158 G01 X51.75
N159 Y22.
N160 G03 X44.25 I-3.75 J0
N161 G01 Y11.4
N162 G03 X51.75 I3.75 J0
N163 G01 Y22.
N164 G03 X44.25 I-3.75 J0
N165 G01 Y11.4
N166 G03 X51.75 I3.75 J0
N167 G00 Z2.5
N168 X48.55
N169 Z.625
N170 G01 Z-2.75 F125.
N171 Y22. F500.
N172 G03 X47.45 I-.55 J0
N173 G01 Y11.4
N174 G03 X48.55 I.55 J0
N175 G01 X49.35
N176 Y22.
N177 G03 X46.65 I-1.35 J0
N178 G01 Y11.4
N179 G03 X49.35 I1.35 J0
N180 G01 X50.15
N181 Y22.
N182 G03 X45.85 I-2.15 J0
N183 G01 Y11.4
N184 G03 X50.15 I2.15 J0
N185 G01 X50.95
N186 Y22.
N187 G03 X45.05 I-2.95 J0
N188 G01 Y11.4
N189 G03 X50.95 I2.95 J0
N190 G01 X51.75
N191 Y22.
N192 G03 X44.25 I-3.75 J0
N193 G01 Y11.4
N194 G03 X51.75 I3.75 J0
N195 G01 Y22.
N196 G03 X44.25 I-3.75 J0
N197 G01 Y11.4
N198 G03 X51.75 I3.75 J0
N199 G00 Z2.5
N200 X48.55
N201 Z-.25
N202 G01 Z-3. F125.
N203 Y22. F500.
N204 G03 X47.45 I-.55 J0
N205 G01 Y11.4
N206 G03 X48.55 I.55 J0
N207 G01 X49.35
N208 Y22.
N209 G03 X46.65 I-1.35 J0
N210 G01 Y11.4
N211 G03 X49.35 I1.35 J0
N212 G01 X50.15
N213 Y22.
N214 G03 X45.85 I-2.15 J0
N215 G01 Y11.4
N216 G03 X50.15 I2.15 J0
N217 G01 X50.95
N218 Y22.
N219 G03 X45.05 I-2.95 J0
N220 G01 Y11.4
N221 G03 X50.95 I2.95 J0
N222 G01 X51.75
N223 Y22.
N224 G03 X44.25 I-3.75 J0
N225 G01 Y11.4
N226 G03 X51.75 I3.75 J0
N227 G01 Y22.
N228 G03 X44.25 I-3.75 J0
N229 G01 Y11.4
N230 G03 X51.75 I3.75 J0
N231 G00 Z2.5
N232 Z25.
N233 S12000
N234 X-.037 Y53.033
N235 Z2.5
N236 G01 Z-1. F411.48
N237 G02 X1.967 Y55.038 I8.037 J-6.033 F1645.92
N238 G01 X-.037
N239 Y53.033
N240 X-.837 Y49.732
N241 G02 X5.268 Y55.838 I8.837 J-2.731
N242 G01 X-.837
N243 Y49.732
N244 G00 Z2.5
N245 X-.037 Y53.033
N246 Z1.5
N247 G01 Z-1.875 F411.48
N248 G02 X1.967 Y55.038 I8.037 J-6.033 F1645.92
N249 G01 X-.037
N250 Y53.033
N251 X-.837 Y49.732
N252 G02 X5.268 Y55.838 I8.837 J-2.731
N253 G01 X-.837
N254 Y49.732
N255 G00 Z2.5
N256 X97.638 Y-1.638
N257 G01 Z-1. F411.48
N258 Y56.638 F1645.92
N259 X90.732
N260 X94.033 Y55.038
N261 G02 X96.037 Y53.033 I-6.033 J-8.037
N262 G01 Y55.038
N263 X94.033
N264 X90.732 Y55.838
N265 G02 X96.837 Y49.732 I-2.731 J-8.837
N266 G01 Y55.838
N267 X90.732
N268 X94.033 Y55.038
N269 X90.732 Y56.638
N270 X-1.637
N271 Y-1.637
N272 X97.638
N273 X98.438 Y-2.438
N274 Y57.438
N275 X-2.437
N276 Y-2.437
N277 X98.438
N278 X99.238 Y-3.238
N279 Y58.238
N280 X-3.237
N281 Y-3.237
N282 X99.238
N283 X100.038 Y-4.038
N284 Y59.037
N285 X-4.037
N286 Y-4.037
N287 X100.038
N288 X100.838 Y-4.838
N289 Y59.837
N290 X-4.837
N291 Y-4.837
N292 X100.838
N293 X101.638 Y-5.638
N294 Y60.637
N295 X-5.637
N296 Y-5.637
N297 X101.638
N298 X102.438 Y-6.438
N299 Y61.437
N300 X-6.437
N301 Y-6.437
N302 X102.438
N303 Y61.437
N304 X-6.437
N305 Y-6.437
N306 X102.438
N307 G00 Z2.5
N308 X97.638 Y-1.638
N309 Z1.5
N310 G01 Z-1.875 F411.48
N311 Y56.638 F1645.92
N312 X90.732
N313 X94.033 Y55.038
N314 G02 X96.037 Y53.033 I-6.033 J-8.037
N315 G01 Y55.038
N316 X94.033
N317 X90.732 Y55.838
N318 G02 X96.837 Y49.732 I-2.731 J-8.837
N319 G01 Y55.838
N320 X90.732
N321 X94.033 Y55.038
N322 X90.732 Y56.638
N323 X-1.637
N324 Y-1.637
N325 X97.638
N326 X98.438 Y-2.438
N327 Y57.438
N328 X-2.437
N329 Y-2.437
N330 X98.438
N331 X99.238 Y-3.238
N332 Y58.238
N333 X-3.237
N334 Y-3.237
N335 X99.238
N336 X100.038 Y-4.038
N337 Y59.037
N338 X-4.037
N339 Y-4.037
N340 X100.038
N341 X100.838 Y-4.838
N342 Y59.837
N343 X-4.837
N344 Y-4.837
N345 X100.838
N346 X101.638 Y-5.638
N347 Y60.637
N348 X-5.637
N349 Y-5.637
N350 X101.638
N351 X102.438 Y-6.438
N352 Y61.437
N353 X-6.437
N354 Y-6.437
N355 X102.438
N356 Y61.437
N357 X-6.437
N358 Y-6.437
N359 X102.438
N360 G00 Z2.5
N361 X97.25 Y0
N362 G01 Z-1. F411.48
N363 G02 X96. Y-1.25 I-1.25 J0 F1645.92
N364 G01 X0
N365 G02 X-1.25 Y0 I0 J1.25
N366 G01 Y47.
N367 G02 X8. Y56.25 I9.25 J0
N368 G01 X88.
N369 G02 X97.25 Y47. I0 J-9.25
N370 G01 Y0
N371 G00 Z2.5
N372 Z1.5
N373 G01 Z-1.875 F411.48
N374 G02 X96. Y-1.25 I-1.25 J0 F1645.92
N375 G01 X0
N376 G02 X-1.25 Y0 I0 J1.25
N377 G01 Y47.
N378 G02 X8. Y56.25 I9.25 J0
N379 G01 X88.
N380 G02 X97.25 Y47. I0 J-9.25
N381 G01 Y0
N382 G00 Z2.5
N383 X99.238 Y-3.238
N384 G01 Z-2.75 F411.48
N385 Y-3.053 F1645.92
N386 G02 X99.053 Y-3.238 I-3.238 J3.053
N387 G01 X99.238
N388 X100.038 Y-4.038
N389 Y6.367
N390 G02 X99.65 Y6.357 I-2.407 J84.271
N391 G01 Y0
N392 G02 X96. Y-3.65 I-3.65 J0
N393 G01 X0
N394 G02 X-3.65 Y0 I0 J3.65
N395 G01 Y6.35
N396 X-4.038
N397 Y-4.037
N398 X-3.053
N399 Y-3.237
N400 G02 X-3.238 Y-3.053 I3.053 J3.237
N401 G01 Y-3.237
N402 X-3.053
N403 Y-4.037
N404 X100.038
N405 X100.838 Y-4.838
N406 Y7.195
N407 G02 X98.85 Y7.142 I-3.207 J83.444
N408 G01 Y0
N409 G02 X96. Y-2.85 I-2.85 J0
N410 G01 X0
N411 G02 X-2.85 Y0 I0 J2.85
N412 G01 Y7.15
N413 X-4.838
N414 Y-4.837
N415 X100.838
N416 X101.638 Y-5.638
N417 Y8.03
N418 G02 X98.05 Y7.934 I-4.007 J82.608
N419 G01 Y0
N420 G02 X96. Y-2.05 I-2.05 J0
N421 G01 X0
N422 G02 X-2.05 Y0 I0 J2.05
N423 G01 Y7.95
N424 X-5.638
N425 Y-5.637
N426 X101.638
N427 X102.438 Y-6.438
N428 Y8.874
N429 G02 X97.25 Y8.734 I-4.807 J81.764
N430 G01 Y0
N431 G02 X96. Y-1.25 I-1.25 J0
N432 G01 X0
N433 G02 X-1.25 Y0 I0 J1.25
N434 G01 Y8.75
N435 X-6.
N436 G02 X-6.438 Y8.78 I0 J3.25
N437 G01 Y-6.437
N438 X102.438
N439 Y8.874
N440 G02 X97.25 Y8.734 I-4.807 J81.764
N441 G01 Y0
N442 G02 X96. Y-1.25 I-1.25 J0
N443 G01 X0
N444 G02 X-1.25 Y0 I0 J1.25
N445 G01 Y8.75
N446 X-6.
N447 G02 X-6.438 Y8.78 I0 J3.25
N448 G01 Y-6.437
N449 X102.438
N450 G00 Z2.5
N451 X99.238 Y-3.238
N452 Z-.25
N453 G01 Z-3. F411.48
N454 Y-3.053 F1645.92
N455 G02 X99.053 Y-3.238 I-3.238 J3.053
N456 G01 X99.238
N457 X100.038 Y-4.038
N458 Y6.367
N459 G02 X99.65 Y6.357 I-2.407 J84.271
N460 G01 Y0
N461 G02 X96. Y-3.65 I-3.65 J0
N462 G01 X0
N463 G02 X-3.65 Y0 I0 J3.65
N464 G01 Y6.35
N465 X-4.038
N466 Y-4.037
N467 X-3.053
N468 Y-3.237
N469 G02 X-3.238 Y-3.053 I3.053 J3.237
N470 G01 Y-3.237
N471 X-3.053
N472 Y-4.037
N473 X100.038
N474 X100.838 Y-4.838
N475 Y7.195
N476 G02 X98.85 Y7.142 I-3.207 J83.444
N477 G01 Y0
N478 G02 X96. Y-2.85 I-2.85 J0
N479 G01 X0
N480 G02 X-2.85 Y0 I0 J2.85
N481 G01 Y7.15
N482 X-4.838
N483 Y-4.837
N484 X100.838
N485 X101.638 Y-5.638
N486 Y8.03
N487 G02 X98.05 Y7.934 I-4.007 J82.608
N488 G01 Y0
N489 G02 X96. Y-2.05 I-2.05 J0
N490 G01 X0
N491 G02 X-2.05 Y0 I0 J2.05
N492 G01 Y7.95
N493 X-5.638
N494 Y-5.637
N495 X101.638
N496 X102.438 Y-6.438
N497 Y8.874
N498 G02 X97.25 Y8.734 I-4.807 J81.764
N499 G01 Y0
N500 G02 X96. Y-1.25 I-1.25 J0
N501 G01 X0
N502 G02 X-1.25 Y0 I0 J1.25
N503 G01 Y8.75
N504 X-6.
N505 G02 X-6.438 Y8.78 I0 J3.25
N506 G01 Y-6.437
N507 X102.438
N508 Y8.874
N509 G02 X97.25 Y8.734 I-4.807 J81.764
N510 G01 Y0
N511 G02 X96. Y-1.25 I-1.25 J0
N512 G01 X0
N513 G02 X-1.25 Y0 I0 J1.25
N514 G01 Y8.75
N515 X-6.
N516 G02 X-6.438 Y8.78 I0 J3.25
N517 G01 Y-6.437
N518 X102.438
N519 G00 Z2.5
N520 X-4.037 Y20.65
N521 G01 Z-2.75 F411.48
N522 X-3.65 F1645.92
N523 Y34.354
N524 G02 X-4.037 Y34.36 I.65 J51.431
N525 G01 Y20.65
N526 X-4.837 Y19.85
N527 X-2.85
N528 Y35.15
N529 G02 X-4.837 Y35.183 I-.15 J50.634
N530 G01 Y19.85
N531 X-5.637 Y19.05
N532 X-2.05
N533 Y35.959
N534 G02 X-5.637 Y36.02 I-.95 J49.826
N535 G01 Y19.05
N536 X-6.438 Y18.227
N537 G02 X-6. Y18.25 I.437 J-4.227
N538 G01 X-1.25
N539 Y36.781
N540 G02 X-6.437 Y36.871 I-1.75 J49.003
N541 G01 Y18.227
N542 G02 X-6. Y18.25 I.437 J-4.227
N543 G01 X-1.25
N544 Y36.781
N545 G02 X-6.437 Y36.871 I-1.75 J49.003
N546 G01 Y18.227
N547 G00 Z2.5
N548 X-4.037 Y20.65
N549 Z-.25
N550 G01 Z-3. F411.48
N551 X-3.65 F1645.92
N552 Y34.354
N553 G02 X-4.037 Y34.36 I.65 J51.431
N554 G01 Y20.65
N555 X-4.837 Y19.85
N556 X-2.85
N557 Y35.15
N558 G02 X-4.837 Y35.183 I-.15 J50.634
N559 G01 Y19.85
N560 X-5.637 Y19.05
N561 X-2.05
N562 Y35.959
N563 G02 X-5.637 Y36.02 I-.95 J49.826
N564 G01 Y19.05
N565 X-6.438 Y18.227
N566 G02 X-6. Y18.25 I.437 J-4.227
N567 G01 X-1.25
N568 Y36.781
N569 G02 X-6.437 Y36.871 I-1.75 J49.003
N570 G01 Y18.227
N571 G02 X-6. Y18.25 I.437 J-4.227
N572 G01 X-1.25
N573 Y36.781
N574 G02 X-6.437 Y36.871 I-1.75 J49.003
N575 G01 Y18.227
N576 G00 Z2.5
N577 X-2.437 Y55.162
N578 G01 Z-2.75 F411.48
N579 G02 X-.162 Y57.438 I10.437 J-8.162 F1645.92
N580 G01 X-2.437
N581 Y55.162
N582 X-3.237 Y52.359
N583 G02 X2.641 Y58.238 I11.237 J-5.359
N584 G01 X-3.237
N585 Y52.359
N586 X-4.037 Y48.633
N587 G02 X-3.533 Y48.645 I2.407 J-84.271
N588 X8. Y58.65 I11.533 J-1.645
N589 G01 X88.
N590 G02 X99.533 Y48.65 I0 J-11.65
N591 G01 X100.038
N592 Y59.037
N593 X93.359
N594 X96.162 Y57.438
N595 G02 X98.438 Y55.162 I-8.162 J-10.437
N596 G01 Y57.438
N597 X96.162
N598 X93.359 Y58.238
N599 G02 X99.238 Y52.359 I-5.359 J-11.237
N600 G01 Y58.238
N601 X93.359
N602 X96.162 Y57.438
N603 X93.359 Y59.037
N604 X-4.037
N605 Y48.633
N606 X-4.837 Y47.805
N607 G02 X-2.816 Y47.858 I3.207 J-83.444
N608 X8. Y57.85 I10.816 J-.858
N609 G01 X88.
N610 G02 X98.817 Y47.85 I0 J-10.85
N611 G01 X100.838
N612 Y59.837
N613 X-4.837
N614 Y47.805
N615 X-5.637 Y46.97
N616 G02 X-2.05 Y47.066 I4.007 J-82.608
N617 X8. Y57.05 I10.05 J-.066
N618 G01 X88.
N619 G02 X98.05 Y47.05 I0 J-10.05
N620 G01 X101.638
N621 Y60.637
N622 X-5.637
N623 Y46.97
N624 X-6.437 Y46.126
N625 G02 X-1.25 Y46.266 I4.807 J-81.764
N626 G01 Y47.
N627 G02 X8. Y56.25 I9.25 J0
N628 G01 X88.
N629 G02 X97.25 Y47. I0 J-9.25
N630 G01 Y46.25
N631 X102.
N632 G02 X102.438 Y46.22 I0 J-3.25
N633 G01 Y61.437
N634 X-6.437
N635 Y46.126
N636 G02 X-1.25 Y46.266 I4.807 J-81.764
N637 G01 Y47.
N638 G02 X8. Y56.25 I9.25 J0
N639 G01 X88.
N640 G02 X97.25 Y47. I0 J-9.25
N641 G01 Y46.25
N642 X102.
N643 G02 X102.438 Y46.22 I0 J-3.25
N644 G01 Y61.437
N645 X-6.437
N646 Y46.126
N647 G00 Z2.5
N648 X-2.437 Y55.162
N649 Z-.25
N650 G01 Z-3. F411.48
N651 G02 X-.162 Y57.438 I10.437 J-8.162 F1645.92
N652 G01 X-2.437
N653 Y55.162
N654 X-3.237 Y52.359
N655 G02 X2.641 Y58.238 I11.237 J-5.359
N656 G01 X-3.237
N657 Y52.359
N658 X-4.037 Y48.633
N659 G02 X-3.533 Y48.645 I2.407 J-84.271
N660 X8. Y58.65 I11.533 J-1.645
N661 G01 X88.
N662 G02 X99.533 Y48.65 I0 J-11.65
N663 G01 X100.038
N664 Y59.037
N665 X93.359
N666 X96.162 Y57.438
N667 G02 X98.438 Y55.162 I-8.162 J-10.437
N668 G01 Y57.438
N669 X96.162
N670 X93.359 Y58.238
N671 G02 X99.238 Y52.359 I-5.359 J-11.237
N672 G01 Y58.238
N673 X93.359
N674 X96.162 Y57.438
N675 X93.359 Y59.037
N676 X-4.037
N677 Y48.633
N678 X-4.837 Y47.805
N679 G02 X-2.816 Y47.858 I3.207 J-83.444
N680 X8. Y57.85 I10.816 J-.858
N681 G01 X88.
N682 G02 X98.817 Y47.85 I0 J-10.85
N683 G01 X100.838
N684 Y59.837
N685 X-4.837
N686 Y47.805
N687 X-5.637 Y46.97
N688 G02 X-2.05 Y47.066 I4.007 J-82.608
N689 X8. Y57.05 I10.05 J-.066
N690 G01 X88.
N691 G02 X98.05 Y47.05 I0 J-10.05
N692 G01 X101.638
N693 Y60.637
N694 X-5.637
N695 Y46.97
N696 X-6.437 Y46.126
N697 G02 X-1.25 Y46.266 I4.807 J-81.764
N698 G01 Y47.
N699 G02 X8. Y56.25 I9.25 J0
N700 G01 X88.
N701 G02 X97.25 Y47. I0 J-9.25
N702 G01 Y46.25
N703 X102.
N704 G02 X102.438 Y46.22 I0 J-3.25
N705 G01 Y61.437
N706 X-6.437
N707 Y46.126
N708 G02 X-1.25 Y46.266 I4.807 J-81.764
N709 G01 Y47.
N710 G02 X8. Y56.25 I9.25 J0
N711 G01 X88.
N712 G02 X97.25 Y47. I0 J-9.25
N713 G01 Y46.25
N714 X102.
N715 G02 X102.438 Y46.22 I0 J-3.25
N716 G01 Y61.437
N717 X-6.437
N718 Y46.126
N719 G00 Z2.5
N720 X100.038 Y34.35
N721 G01 Z-2.75 F411.48
N722 X99.65 F1645.92
N723 Y20.646
N724 G02 X100.038 Y20.64 I-.65 J-51.431
N725 G01 Y34.35
N726 X100.838 Y35.15
N727 X98.85
N728 Y19.85
N729 G02 X100.838 Y19.817 I.15 J-50.634
N730 G01 Y35.15
N731 X101.638 Y35.95
N732 X98.05
N733 Y19.041
N734 G02 X101.638 Y18.98 I.95 J-49.826
N735 G01 Y35.95
N736 X102.438 Y36.773
N737 G02 X102. Y36.75 I-.437 J4.227
N738 G01 X97.25
N739 Y18.219
N740 G02 X102.438 Y18.129 I1.75 J-49.003
N741 G01 Y36.773
N742 G02 X102. Y36.75 I-.437 J4.227
N743 G01 X97.25
N744 Y18.219
N745 G02 X102.438 Y18.129 I1.75 J-49.003
N746 G01 Y36.773
N747 G00 Z2.5
N748 X100.038 Y34.35
N749 Z-.25
N750 G01 Z-3. F411.48
N751 X99.65 F1645.92
N752 Y20.646
N753 G02 X100.038 Y20.64 I-.65 J-51.431
N754 G01 Y34.35
N755 X100.838 Y35.15
N756 X98.85
N757 Y19.85
N758 G02 X100.838 Y19.817 I.15 J-50.634
N759 G01 Y35.15
N760 X101.638 Y35.95
N761 X98.05
N762 Y19.041
N763 G02 X101.638 Y18.98 I.95 J-49.826
N764 G01 Y35.95
N765 X102.438 Y36.773
N766 G02 X102. Y36.75 I-.437 J4.227
N767 G01 X97.25
N768 Y18.219
N769 G02 X102.438 Y18.129 I1.75 J-49.003
N770 G01 Y36.773
N771 G02 X102. Y36.75 I-.437 J4.227
N772 G01 X97.25
N773 Y18.219
N774 G02 X102.438 Y18.129 I1.75 J-49.003
N775 G01 Y36.773
N776 G00 Z2.5
N777 Z25.
N778 X68.8 Y27.2
N779 Z2.5
N780 G01 Z.25 F411.48
N781 Y27.8 F1645.92
N782 X27.2
N783 Y27.2
N784 X68.8
N785 X69.6 Y26.4
N786 Y28.6
N787 X26.4
N788 Y26.4
N789 X69.6
N790 X70.4 Y25.6
N791 Y29.4
N792 X25.6
N793 Y25.6
N794 X70.4
N795 X71.2 Y24.8
N796 Y30.2
N797 X24.8
N798 Y24.8
N799 X71.2
N800 X72. Y24.
N801 Y31.
N802 X24.
N803 Y24.
N804 X72.
N805 X72.8 Y23.2
N806 Y31.8
N807 X23.2
N808 Y23.2
N809 X72.8
N810 X73.6 Y22.4
N811 Y32.6
N812 X22.4
N813 Y22.4
N814 X73.6
N815 X74.4 Y21.6
N816 Y33.4
N817 X21.6
N818 Y21.6
N819 X74.4
N820 X75.2 Y20.8
N821 Y34.2
N822 X20.8
N823 Y20.8
N824 X75.2
N825 X76. Y20.
N826 Y35.
N827 X20.
N828 Y20.
N829 X76.
N830 X76.8 Y19.2
N831 Y35.8
N832 X19.2
N833 Y19.2
N834 X76.8
N835 X77.6 Y18.4
N836 Y36.6
N837 X18.4
N838 Y18.4
N839 X77.6
N840 X78.4 Y17.6
N841 Y37.4
N842 X17.6
N843 Y17.6
N844 X78.4
N845 X79.2 Y16.8
N846 Y38.2
N847 X16.8
N848 Y16.8
N849 X79.2
N850 X80. Y16.
N851 Y39.
N852 X16.
N853 Y16.
N854 X80.
N855 X80.8 Y15.2
N856 Y39.8
N857 X15.2
N858 Y15.2
N859 X80.8
N860 X81.6 Y14.4
N861 Y40.6
N862 X14.4
N863 Y14.4
N864 X81.6
N865 X82.4 Y13.6
N866 Y41.4
N867 X13.6
N868 Y13.6
N869 X82.4
N870 X83.2 Y12.8
N871 Y42.2
N872 X12.8
N873 Y12.8
N874 X83.2
N875 X84. Y12.
N876 Y43.
N877 X12.
N878 Y12.
N879 X84.
N880 X84.8 Y11.2
N881 Y43.8
N882 X11.2
N883 Y11.2
N884 X84.8
N885 X85.6 Y10.4
N886 Y44.6
N887 X10.4
N888 Y10.4
N889 X85.6
N890 X86.4 Y9.6
N891 Y45.4
N892 X9.6
N893 Y9.6
N894 X86.4
N895 X87.2 Y8.8
N896 Y46.2
N897 X8.8
N898 Y8.8
N899 X87.2
N900 X88. Y8.
N901 Y47.
N902 X8.
N903 Y8.
N904 X88.
N905 X88.8 Y7.2
N906 Y47.
N907 G03 X88. Y47.8 I-.8 J0
N908 G01 X8.
N909 G03 X7.2 Y47. I0 J-.8
N910 G01 Y7.2
N911 X88.8
N912 X89.6 Y6.4
N913 Y47.
N914 G03 X88. Y48.6 I-1.6 J0
N915 G01 X8.
N916 G03 X6.4 Y47. I0 J-1.6
N917 G01 Y6.4
N918 X89.6
N919 X90.4 Y5.6
N920 Y47.
N921 G03 X88. Y49.4 I-2.4 J0
N922 G01 X8.
N923 G03 X5.6 Y47. I0 J-2.4
N924 G01 Y5.6
N925 X90.4
N926 X91.2 Y4.8
N927 Y47.
N928 G03 X88. Y50.2 I-3.2 J0
N929 G01 X8.
N930 G03 X4.8 Y47. I0 J-3.2
N931 G01 Y4.8
N932 X91.2
N933 X92. Y4.
N934 Y47.
N935 G03 X88. Y51. I-4. J0
N936 G01 X8.
N937 G03 X4. Y47. I0 J-4.
N938 G01 Y4.
N939 X92.
N940 X92.8 Y3.2
N941 Y47.
N942 G03 X88. Y51.8 I-4.8 J0
N943 G01 X8.
N944 G03 X3.2 Y47. I0 J-4.8
N945 G01 Y3.2
N946 X92.8
N947 X93.6 Y2.4
N948 Y47.
N949 G03 X88. Y52.6 I-5.6 J0
N950 G01 X8.
N951 G03 X2.4 Y47. I0 J-5.6
N952 G01 Y2.4
N953 X93.6
N954 X94.4 Y1.6
N955 Y47.
N956 G03 X88. Y53.4 I-6.4 J0
N957 G01 X8.
N958 G03 X1.6 Y47. I0 J-6.4
N959 G01 Y1.6
N960 X94.4
N961 X95.2 Y.8
N962 Y47.
N963 G03 X88. Y54.2 I-7.2 J0
N964 G01 X8.
N965 G03 X.8 Y47. I0 J-7.2
N966 G01 Y.8
N967 X95.2
N968 X96. Y0
N969 Y47.
N970 G03 X88. Y55. I-8. J0
N971 G01 X8.
N972 G03 X0 Y47. I0 J-8.
N973 G01 Y0
N974 X96.
N975 G00 Z2.5
N976 X68.8 Y27.2
N977 G01 Z0 F411.48
N978 Y27.8 F1645.92
N979 X27.2
N980 Y27.2
N981 X68.8
N982 X69.6 Y26.4
N983 Y28.6
N984 X26.4
N985 Y26.4
N986 X69.6
N987 X70.4 Y25.6
N988 Y29.4
N989 X25.6
N990 Y25.6
N991 X70.4
N992 X71.2 Y24.8
N993 Y30.2
N994 X24.8
N995 Y24.8
N996 X71.2
N997 X72. Y24.
N998 Y31.
N999 X24.
N1000 Y24.
N1001 X72.
N1002 X72.8 Y23.2
N1003 Y31.8
N1004 X23.2
N1005 Y23.2
N1006 X72.8
N1007 X73.6 Y22.4
N1008 Y32.6
N1009 X22.4
N1010 Y22.4
N1011 X73.6
N1012 X74.4 Y21.6
N1013 Y33.4
N1014 X21.6
N1015 Y21.6
N1016 X74.4
N1017 X75.2 Y20.8
N1018 Y34.2
N1019 X20.8
N1020 Y20.8
N1021 X75.2
N1022 X76. Y20.
N1023 Y35.
N1024 X20.
N1025 Y20.
N1026 X76.
N1027 X76.8 Y19.2
N1028 Y35.8
N1029 X19.2
N1030 Y19.2
N1031 X76.8
N1032 X77.6 Y18.4
N1033 Y36.6
N1034 X18.4
N1035 Y18.4
N1036 X77.6
N1037 X78.4 Y17.6
N1038 Y37.4
N1039 X17.6
N1040 Y17.6
N1041 X78.4
N1042 X79.2 Y16.8
N1043 Y38.2
N1044 X16.8
N1045 Y16.8
N1046 X79.2
N1047 X80. Y16.
N1048 Y39.
N1049 X16.
N1050 Y16.
N1051 X80.
N1052 X80.8 Y15.2
N1053 Y39.8
N1054 X15.2
N1055 Y15.2
N1056 X80.8
N1057 X81.6 Y14.4
N1058 Y40.6
N1059 X14.4
N1060 Y14.4
N1061 X81.6
N1062 X82.4 Y13.6
N1063 Y41.4
N1064 X13.6
N1065 Y13.6
N1066 X82.4
N1067 X83.2 Y12.8
N1068 Y42.2
N1069 X12.8
N1070 Y12.8
N1071 X83.2
N1072 X84. Y12.
N1073 Y43.
N1074 X12.
N1075 Y12.
N1076 X84.
N1077 X84.8 Y11.2
N1078 Y43.8
N1079 X11.2
N1080 Y11.2
N1081 X84.8
N1082 X85.6 Y10.4
N1083 Y44.6
N1084 X10.4
N1085 Y10.4
N1086 X85.6
N1087 X86.4 Y9.6
N1088 Y45.4
N1089 X9.6
N1090 Y9.6
N1091 X86.4
N1092 X87.2 Y8.8
N1093 Y46.2
N1094 X8.8
N1095 Y8.8
N1096 X87.2
N1097 X88. Y8.
N1098 Y47.
N1099 X8.
N1100 Y8.
N1101 X88.
N1102 X88.8 Y7.2
N1103 Y47.
N1104 G03 X88. Y47.8 I-.8 J0
N1105 G01 X8.
N1106 G03 X7.2 Y47. I0 J-.8
N1107 G01 Y7.2
N1108 X88.8
N1109 X89.6 Y6.4
N1110 Y47.
N1111 G03 X88. Y48.6 I-1.6 J0
N1112 G01 X8.
N1113 G03 X6.4 Y47. I0 J-1.6
N1114 G01 Y6.4
N1115 X89.6
N1116 X90.4 Y5.6
N1117 Y47.
N1118 G03 X88. Y49.4 I-2.4 J0
N1119 G01 X8.
N1120 G03 X5.6 Y47. I0 J-2.4
N1121 G01 Y5.6
N1122 X90.4
N1123 X91.2 Y4.8
N1124 Y47.
N1125 G03 X88. Y50.2 I-3.2 J0
N1126 G01 X8.
N1127 G03 X4.8 Y47. I0 J-3.2
N1128 G01 Y4.8
N1129 X91.2
N1130 X92. Y4.
N1131 Y47.
N1132 G03 X88. Y51. I-4. J0
N1133 G01 X8.
N1134 G03 X4. Y47. I0 J-4.
N1135 G01 Y4.
N1136 X92.
N1137 X92.8 Y3.2
N1138 Y47.
N1139 G03 X88. Y51.8 I-4.8 J0
N1140 G01 X8.
N1141 G03 X3.2 Y47. I0 J-4.8
N1142 G01 Y3.2
N1143 X92.8
N1144 X93.6 Y2.4
N1145 Y47.
N1146 G03 X88. Y52.6 I-5.6 J0
N1147 G01 X8.
N1148 G03 X2.4 Y47. I0 J-5.6
N1149 G01 Y2.4
N1150 X93.6
N1151 X94.4 Y1.6
N1152 Y47.
N1153 G03 X88. Y53.4 I-6.4 J0
N1154 G01 X8.
N1155 G03 X1.6 Y47. I0 J-6.4
N1156 G01 Y1.6
N1157 X94.4
N1158 X95.2 Y.8
N1159 Y47.
N1160 G03 X88. Y54.2 I-7.2 J0
N1161 G01 X8.
N1162 G03 X.8 Y47. I0 J-7.2
N1163 G01 Y.8
N1164 X95.2
N1165 X96. Y0
N1166 Y47.
N1167 G03 X88. Y55. I-8. J0
N1168 G01 X8.
N1169 G03 X0 Y47. I0 J-8.
N1170 G01 Y0
N1171 X96.
N1172 G00 Z2.5
N1173 Z25.
N1174 X48.55 Y11.4
N1175 Z2.5
N1176 G01 Z-1. F411.48
N1177 Y22. F1645.92
N1178 G03 X47.45 I-.55 J0
N1179 G01 Y11.4
N1180 G03 X48.55 I.55 J0
N1181 G01 X49.35
N1182 Y22.
N1183 G03 X46.65 I-1.35 J0
N1184 G01 Y11.4
N1185 G03 X49.35 I1.35 J0
N1186 G01 X50.15
N1187 Y22.
N1188 G03 X45.85 I-2.15 J0
N1189 G01 Y11.4
N1190 G03 X50.15 I2.15 J0
N1191 G01 X50.95
N1192 Y22.
N1193 G03 X45.05 I-2.95 J0
N1194 G01 Y11.4
N1195 G03 X50.95 I2.95 J0
N1196 G01 X51.75
N1197 Y22.
N1198 G03 X44.25 I-3.75 J0
N1199 G01 Y11.4
N1200 G03 X51.75 I3.75 J0
N1201 G01 Y22.
N1202 G03 X44.25 I-3.75 J0
N1203 G01 Y11.4
N1204 G03 X51.75 I3.75 J0
N1205 G00 Z2.5
N1206 X48.55
N1207 Z1.5
N1208 G01 Z-1.875 F411.48
N1209 Y22. F1645.92
N1210 G03 X47.45 I-.55 J0
N1211 G01 Y11.4
N1212 G03 X48.55 I.55 J0
N1213 G01 X49.35
N1214 Y22.
N1215 G03 X46.65 I-1.35 J0
N1216 G01 Y11.4
N1217 G03 X49.35 I1.35 J0
N1218 G01 X50.15
N1219 Y22.
N1220 G03 X45.85 I-2.15 J0
N1221 G01 Y11.4
N1222 G03 X50.15 I2.15 J0
N1223 G01 X50.95
N1224 Y22.
N1225 G03 X45.05 I-2.95 J0
N1226 G01 Y11.4
N1227 G03 X50.95 I2.95 J0
N1228 G01 X51.75
N1229 Y22.
N1230 G03 X44.25 I-3.75 J0
N1231 G01 Y11.4
N1232 G03 X51.75 I3.75 J0
N1233 G01 Y22.
N1234 G03 X44.25 I-3.75 J0
N1235 G01 Y11.4
N1236 G03 X51.75 I3.75 J0
N1237 G00 Z2.5
N1238 X48.55
N1239 G01 Z-2.75 F411.48
N1240 Y22. F1645.92
N1241 G03 X47.45 I-.55 J0
N1242 G01 Y11.4
N1243 G03 X48.55 I.55 J0
N1244 G01 X49.35
N1245 Y22.
N1246 G03 X46.65 I-1.35 J0
N1247 G01 Y11.4
N1248 G03 X49.35 I1.35 J0
N1249 G01 X50.15
N1250 Y22.
N1251 G03 X45.85 I-2.15 J0
N1252 G01 Y11.4
N1253 G03 X50.15 I2.15 J0
N1254 G01 X50.95
N1255 Y22.
N1256 G03 X45.05 I-2.95 J0
N1257 G01 Y11.4
N1258 G03 X50.95 I2.95 J0
N1259 G01 X51.75
N1260 Y22.
N1261 G03 X44.25 I-3.75 J0
N1262 G01 Y11.4
N1263 G03 X51.75 I3.75 J0
N1264 G01 Y22.
N1265 G03 X44.25 I-3.75 J0
N1266 G01 Y11.4
N1267 G03 X51.75 I3.75 J0
N1268 G00 Z2.5
N1269 X48.55
N1270 Z-.25
N1271 G01 Z-3. F411.48
N1272 Y22. F1645.92
N1273 G03 X47.45 I-.55 J0
N1274 G01 Y11.4
N1275 G03 X48.55 I.55 J0
N1276 G01 X49.35
N1277 Y22.
N1278 G03 X46.65 I-1.35 J0
N1279 G01 Y11.4
N1280 G03 X49.35 I1.35 J0
N1281 G01 X50.15
N1282 Y22.
N1283 G03 X45.85 I-2.15 J0
N1284 G01 Y11.4
N1285 G03 X50.15 I2.15 J0
N1286 G01 X50.95
N1287 Y22.
N1288 G03 X45.05 I-2.95 J0
N1289 G01 Y11.4
N1290 G03 X50.95 I2.95 J0
N1291 G01 X51.75
N1292 Y22.
N1293 G03 X44.25 I-3.75 J0
N1294 G01 Y11.4
N1295 G03 X51.75 I3.75 J0
N1296 G01 Y22.
N1297 G03 X44.25 I-3.75 J0
N1298 G01 Y11.4
N1299 G03 X51.75 I3.75 J0
N1300 G00 Z2.5
N1301 Z25. M09
N1302 G91 G28 Z0
N1303 G28 X0 Y0
N1304 M30
